src/assets/bg_referral_modal.svg

<svg width="761" height="253" viewBox="0 0 761 253" fill="none" xmlns="http://www.w3.org/2000/svg">
<path d="M726.281 0.960938H378.07V6.63094H726.281C741.961 6.63094 754.72 19.3909 754.72 35.0709V218.481C754.72 234.161 741.961 246.921 726.281 246.921H34.1105C18.4305 246.921 5.67049 234.161 5.67049 218.481V35.0709C5.67049 19.3909 18.4305 6.63094 34.1105 6.63094H378.211V0.960938H34.1105C15.2705 0.960938 0.000488281 16.2309 0.000488281 35.0709V218.481C0.000488281 237.321 15.2705 252.591 34.1105 252.591H726.281C745.121 252.591 760.391 237.321 760.391 218.481V35.0709C760.401 16.2309 745.121 0.960938 726.281 0.960938Z" fill="url(#paint0_linear_427_17495)"/>
<path d="M726.321 5.21094H378.071V6.63094H726.321C742.001 6.63094 754.761 19.3909 754.761 35.0709V218.481C754.761 234.161 742.001 246.921 726.321 246.921H34.1505C18.4705 246.921 5.71053 234.161 5.71053 218.481V35.0709C5.71053 19.3909 18.4705 6.63094 34.1505 6.63094H378.211V5.21094H34.1505C17.6905 5.21094 4.29053 18.6009 4.29053 35.0709V218.481C4.29053 234.941 17.6905 248.341 34.1505 248.341H726.321C742.781 248.341 756.181 234.951 756.181 218.481V35.0709C756.181 18.6109 742.791 5.21094 726.321 5.21094Z" fill="url(#paint1_linear_427_17495)"/>
<path d="M726.321 0.960938H378.071V2.38094H726.321C744.351 2.38094 759.011 17.0509 759.011 35.0709V218.481C759.011 236.511 744.341 251.171 726.321 251.171H34.1505C16.1205 251.171 1.46053 236.501 1.46053 218.481V35.0709C1.46053 17.0409 16.1305 2.38094 34.1505 2.38094H378.211V0.960938H34.1505C15.3105 0.960938 0.0405273 16.2309 0.0405273 35.0709V218.481C0.0405273 237.321 15.3105 252.591 34.1505 252.591H726.321C745.161 252.591 760.431 237.321 760.431 218.481V35.0709C760.431 16.2309 745.161 0.960938 726.321 0.960938Z" fill="url(#paint2_linear_427_17495)"/>
<defs>
<linearGradient id="paint0_linear_427_17495" x1="249.154" y1="-93.5241" x2="501.243" y2="447.082" gradientUnits="userSpaceOnUse">
<stop stop-color="#FFDC00"/>
<stop offset="0.2469" stop-color="#FFFF6B"/>
<stop offset="0.5953" stop-color="#FFDC00"/>
<stop offset="1" stop-color="#FFA500"/>
</linearGradient>
<linearGradient id="paint1_linear_427_17495" x1="250.993" y1="-89.6618" x2="499.479" y2="443.219" gradientUnits="userSpaceOnUse">
<stop stop-color="#DA8F00"/>
<stop offset="0.4047" stop-color="#FFDC00"/>
<stop offset="1" stop-color="#FFFF8F"/>
</linearGradient>
<linearGradient id="paint2_linear_427_17495" x1="249.192" y1="-93.5241" x2="501.28" y2="447.082" gradientUnits="userSpaceOnUse">
<stop stop-color="#FFFF8F"/>
<stop offset="0.5953" stop-color="#FFDC00"/>
<stop offset="1" stop-color="#DA8F00"/>
</linearGradient>
</defs>
</svg>

<svg width="761" height="253" fill="none" xmlns="http://www.w3.org/2000/svg"><path d="M726.281.96H378.07v5.67h348.211c15.68 0 28.439 12.76 28.439 28.44v183.411c0 15.68-12.759 28.44-28.439 28.44H34.111c-15.68 0-28.44-12.76-28.44-28.44V35.071c0-15.68 12.76-28.44 28.44-28.44h344.1V.96h-344.1C15.27.96 0 16.23 0 35.07v183.41c0 18.84 15.27 34.11 34.11 34.11h692.17c18.84 0 34.11-15.27 34.11-34.11V35.071c.01-18.84-15.27-34.11-34.11-34.11z" fill="url(#a)"/><path d="M726.321 5.21h-348.25v1.42h348.25c15.68 0 28.44 12.76 28.44 28.44v183.411c0 15.68-12.76 28.44-28.44 28.44H34.151c-15.68 0-28.44-12.76-28.44-28.44V35.071c0-15.68 12.76-28.44 28.44-28.44h344.06V5.21H34.151C17.69 5.21 4.29 18.6 4.29 35.07v183.41c0 16.46 13.4 29.86 29.86 29.86h692.17c16.46 0 29.86-13.39 29.86-29.86V35.071c0-16.46-13.39-29.86-29.86-29.86z" fill="url(#b)"/><path d="M726.321.96h-348.25v1.42h348.25c18.03 0 32.69 14.67 32.69 32.69v183.411c0 18.03-14.67 32.69-32.69 32.69H34.151c-18.03 0-32.69-14.67-32.69-32.69V35.071c0-18.03 14.67-32.69 32.69-32.69h344.06V.96H34.151C15.31.96.04 16.23.04 35.07v183.41c0 18.84 15.27 34.11 34.11 34.11h692.17c18.84 0 34.11-15.27 34.11-34.11V35.071c0-18.84-15.27-34.11-34.11-34.11z" fill="url(#c)"/><defs><linearGradient id="a" x1="249.154" y1="-93.524" x2="501.243" y2="447.082" gradientUnits="userSpaceOnUse"><stop stop-color="#FFDC00"/><stop offset=".247" stop-color="#FFFF6B"/><stop offset=".595" stop-color="#FFDC00"/><stop offset="1" stop-color="orange"/></linearGradient><linearGradient id="b" x1="250.993" y1="-89.662" x2="499.479" y2="443.219" gradientUnits="userSpaceOnUse"><stop stop-color="#DA8F00"/><stop offset=".405" stop-color="#FFDC00"/><stop offset="1" stop-color="#FFFF8F"/></linearGradient><linearGradient id="c" x1="249.192" y1="-93.524" x2="501.28" y2="447.082" gradientUnits="userSpaceOnUse"><stop stop-color="#FFFF8F"/><stop offset=".595" stop-color="#FFDC00"/><stop offset="1" stop-color="#DA8F00"/></linearGradient></defs></svg>
